shared/images/iconfont/96-kb-iconfont-text-code-16.svg

<?xml version="1.0" encoding="UTF-8"?>
<svg width="16px" height="16px" viewBox="0 0 16 16" version="1.1" xmlns="http://www.w3.org/2000/svg" xmlns:xlink="http://www.w3.org/1999/xlink">
    <!-- Generator: sketchtool 57.1 (101010) - https://sketch.com -->
    <title>05CF8234-70E9-4C35-9936-4A10912F16E3</title>
    <desc>Created with sketchtool.</desc>
    <g id="Symbols" stroke="none" stroke-width="1" fill="none" fill-rule="evenodd">
        <g id="96-kb-iconfont-text-code-16">
            <g>
                <rect id="icon-area" opacity="0" x="0" y="0" width="16" height="16"></rect>
                <path d="M8.5,11 C9.32842712,11 10,11.6715729 10,12.5 C10,13.3284271 9.32842712,14 8.5,14 L3.5,14 C2.67157288,14 2,13.3284271 2,12.5 C2,11.6715729 2.67157288,11 3.5,11 L8.5,11 Z M3.5,7 C4.32842712,7 5,7.67157288 5,8.5 C5,9.32842712 4.32842712,10 3.5,10 C2.67157288,10 2,9.32842712 2,8.5 C2,7.67157288 2.67157288,7 3.5,7 Z M11.5,7 C12.3284271,7 13,7.67157288 13,8.5 C13,9.32842712 12.3284271,10 11.5,10 L7.5,10 C6.67157288,10 6,9.32842712 6,8.5 C6,7.67157288 6.67157288,7 7.5,7 L11.5,7 Z M12.5,3 C13.3284271,3 14,3.67157288 14,4.5 C14,5.32842712 13.3284271,6 12.5,6 L3.5,6 C2.67157288,6 2,5.32842712 2,4.5 C2,3.67157288 2.67157288,3 3.5,3 L12.5,3 Z" id="Combined-Shape" fill="#000000"></path>
            </g>
        </g>
    </g>
</svg>

<svg xmlns="http://www.w3.org/2000/svg" width="16" height="16" viewBox="0 0 16 16">
    <path fill="#000" fill-rule="evenodd" d="M8.5 11a1.5 1.5 0 0 1 0 3h-5a1.5 1.5 0 0 1 0-3h5zm-5-4a1.5 1.5 0 1 1 0 3 1.5 1.5 0 0 1 0-3zm8 0a1.5 1.5 0 0 1 0 3h-4a1.5 1.5 0 0 1 0-3h4zm1-4a1.5 1.5 0 0 1 0 3h-9a1.5 1.5 0 0 1 0-3h9z"/>
</svg>
